svgs/sharp-solid/prescription-bottle-pill.svg

<svg xmlns="http://www.w3.org/2000/svg" viewBox="0 0 576 512"><!--! Font Awesome Pro 6.6.0 by @fontawesome - https://fontawesome.com License - https://fontawesome.com/license (Commercial License) Copyright 2024 Fonticons, Inc. --><path d="M0 0L384 0l0 96L0 96 0 0zM32 128l320 0 0 83.2c-57 29.1-96 88.4-96 156.8c0 59.5 29.6 112.1 74.8 144L32 512l0-96 112 0 16 0 0-32-16 0L32 384l0-64 112 0 16 0 0-32-16 0L32 288l0-64 112 0 16 0 0-32-16 0L32 192l0-64zM288 368c0-34 11.8-65.2 31.5-89.9L521.9 480.5C497.2 500.2 466 512 432 512c-79.5 0-144-64.5-144-144zm288 0c0 34-11.8 65.2-31.5 89.9L342.1 255.5C366.8 235.8 398 224 432 224c79.5 0 144 64.5 144 144z"/></svg>

<svg xmlns="http://www.w3.org/2000/svg" viewBox="0 0 576 512"><!--! Font Awesome Pro 6.4.0 by @fontawesome - https://fontawesome.com License - https://fontawesome.com/license (Commercial License) Copyright 2023 Fonticons, Inc. --><path d="M0 0H384V96H0V0zM32 128H352v83.2c-57 29.1-96 88.4-96 156.8c0 59.5 29.6 112.1 74.8 144H32V416H144h16V384H144 32V320H144h16V288H144 32V224H144h16V192H144 32V128zM288 368c0-34 11.8-65.2 31.5-89.9L521.9 480.5C497.2 500.2 466 512 432 512c-79.5 0-144-64.5-144-144zm288 0c0 34-11.8 65.2-31.5 89.9L342.1 255.5C366.8 235.8 398 224 432 224c79.5 0 144 64.5 144 144z"/></svg>
